X:1
T:[ID 2v-5 (=2-139)]
T:[ID 2v-5 (=2-139)]
T:Bezeichnung standardisiert: Siciliano Siciliano
T:Urheber unbekannt Datum in der hier transkribierten schriftlichen Quelle: 1767
C:Urheber unbekannt
C:Datum in der hier transkribierten schriftlichen Quelle: 1767
L:1/8
M:6/8
K:G
V:1 treble 
V:1
 d | d>cB d>cB | d>ef g2 d | e>fe c'2 e | ^c2 d d2 B | =c>dc a2 c | Bgf ed^c | d2 a f2 a | %8
 g2 f e>fg | f2 d' a2 ^c' | b>ag f>ed | ^c>de e3 | d>ef f3 | e>fg g2 a | f>ed e>d^c | d>ed ^c3 | %16
 A>Bc B3 | g>fe a2 g | f2 d e>d^c | d2 a f2 a | g2 f g2 e | f2 f f2 :: a | a>gf a>gf | %24
 a>b^c' d'2 a | a>gf =c'>ba | g2 a b2 e | f>ag f>e^d | e3 z z g | g>fe b>ag | f2 g a2 d | %31
 e>gf e>d^c | d2 f a2 =c' | bd'c' bag | f>ga a3 | g>ab b3 | a>bc' c'2 d' | b>ag a>gf | g>ag _f3 | %39
 d>e_f e3 | c'>ba d'2 c' | b2 g a>gf | g2 d B2 d' | c'2 b c'2 a | b>d'b b3 | g>bg g3 | a>c'a f>af | %47
 ggg g3 | x6 :| %49

